X:1
T:My dear Redeemer and my Lord
T:My dear Redeemer and my Lord - Example (Thomas Clark)
C:Thomas Clark
Z:p41, A Fifth Set of
Z:Psalm and Hymn Tunes,
Z:London: [c1809]
%%score [ 1 2 3 4 ]
L:1/8
M:4/4
K:F
V:1 treble nm="SOPRANO" snm="S."
V:2 treble nm="ALTO" snm="A."
V:3 treble-8 transpose=-12 nm="TENOR" snm="T."
V:4 bass nm="BASS" snm="B."
V:1
 F | A2 c2 (de)(fB) | A2 G2 F2 z G | (Ac)(BA) (df)(ed) | c2 =B2 !fermata!c3 c | f2 (ed) c2 (BA) | %6
w: Cold|moun- tains, and _ the _|mid- night air, Wit-|ness’d _ the _ fer- * vour _|of thy pray’r; The|de- sert _ thy temp- *|
w: My|dear Re- dee- * mer _|and my Lord, I|read _ my _ du- * ty _|in thy word; But|in thy _ life the _|
w: Such|was thy truth, _ and _|such thy zeal, Such|def- * ’rence _ to _ thy _|Fa- ther’s will, Such|love, and _ meek- ness _|
 d2 (cB) A2 c2 | d2 d2 e2 f2 | f2 e2 f2 z F | d2 c2 (cB)(AB) | A2 G2 F4 |] %11
w: ta- tions _ knew, Thy|con- flict, and thy|vict- ’ry too, thy|con- flict, and _ thy _|vict- ’ry too.|
w: law ap- * pears, Drawn|out in li- ving|cha- rac- ters, drawn|out in li- * ving _|cha- rac- ters.|
w: so di- * vine, I|would tran- scribe, and|make them mine, I|would tran- scribe _ and _|make them mine.|
V:2
 C | F2 F2 (FB)(AG) | F2 E2 F2 z E | F2 C2 F2 (GA) | G2 G2 !fermata!G3 F | A2 (GE) F2 F2 | %6
w: Cold|moun- tains, and _ the _|mid- night air, Wit-|ness’d the fer- vour _|of thy pray’r; The|de- sert _ thy temp-|
w: My|dear Re- dee- * mer _|and my Lord, I|read my du- ty _|in thy word; But|in thy _ life the|
w: Such|was thy truth, _ and _|such thy zeal, Such|def- ’rence to thy _|Fa- ther’s will, Such|love, and _ meek- ness|
 F2 E2 (F2 G2) | A2 FF C2 F2 | G3 G A2 F2 | F3 F (FE)(FG) | F2 E2 F4 |] %11
w: ta- tions knew, _|Thy con- flict, and thy|vict- ’ry too, thy|con- flict, and _ thy _|vict- ’ry too.|
w: law ap- pears, _|Drawn out in li- ving|cha- rac- ters, drawn|out in li- * ving _|cha- rac- ters.|
w: so di- vine, _|I would tran- scribe, and|make them mine, I|would tran- scribe _ and _|make them mine.|
V:3
 A | c2 A2 B2 (cd) | c2 B2 A2 z c | (cA) F2 (A=B)(cf) | e2 d2 !fermata!e3 A | c2 B2 A2 c2 | %6
w: Cold|moun- tains, and the _|mid- night air, Wit-|ness’d _ the fer- * vour _|of thy pray’r; The|de- sert thy temp-|
w: My|dear Re- dee- mer _|and my Lord, I|read _ my du- * ty _|in thy word; But|in thy life the|
w: Such|was thy truth, and _|such thy zeal, Such|def- * ’rence to _ thy _|Fa- ther’s will, Such|love, and meek- ness|
 B2 G2 F2 c2- | c2 B4 A2 | GGcc F2 z2 | z FAc (fc)(cd) | c2 B2 A4 |] %11
w: ta- tions knew, Thy|_ con- flict,|and thy vict- ’ry too,|thy con- flict, and _ thy _|vict- ’ry too.|
w: law ap- pears, Drawn|_ out in|li- ving cha- rac- ters,|drawn out in li- * ving _|cha- rac- ters.|
w: so di- vine, I|_ would tran-|scribe, and make them mine,|I would tran- scribe _ and _|make them mine.|
V:4
 F, | F,2 F,2 (B,"^6"G,)"^6"(A,"^6"B,) |"^64" C2"^75" C,2 F,2 z C, | %3
w: Cold|moun- tains, and _ the _|mid- night air, Wit-|
w: My|dear Re- dee- * mer _|and my Lord, I|
w: Such|was thy truth, _ and _|such thy zeal, Such|
 F,2 F,2"^6" (F,"^Y"D,)"^6"(E,"^6"F,) |"^64" G,2"^5§" G,,2 !fermata!C,3 F, | %5
w: ness’d the fer- * vour _|of thy pray’r; The|
w: read my du- * ty _|in thy word; But|
w: def- ’rence to _ thy _|Fa- ther’s will, Such|
 F,2"^6""^-5" G,2"^6" A,2 F,2 | B,,2 C,2 (D,2"^6" E,2) |"^65""^64" F,4"^43" G,2"^6" A,2 | %8
w: de- sert thy temp-|ta- tions knew, _|Thy con- flict,|
w: in thy life the|law ap- pears, _|Drawn out in|
w: love, and meek- ness|so di- vine, _|I would tran-|
"^Notes:The order of staves in the source is Tenor - [Alto] - Air - [Bass], with the alto part printed in the treble clef an octave abovesounding pitch.Only the first verse of text is given in the source: subsequent verses have here been added editorially.""^65" B,DC"^64"B,"^6" A,F, B,2- | %9
w: and thy vict- ’ry too, thy con-|
w: li- ving cha- rac- ters, drawn out|
w: scribe, and make them mine, I would|
 B,2"^6" A,2"^6" (A,"^43"G,)(F,"^6"B,,) |"^64" C,2"^75" C,2 F,4 |] %11
w: * flict, and _ thy _|vict- ’ry too.|
w: _ in li- * ving _|cha- rac- ters.|
w: _ tran- scribe _ and _|make them mine.|

